X:709
T:Anglais
T:efter Alfred Petersson, Nättraby, Blekinge (SvL, Band 18, nr 317)
O:Petersson, Nättraby
C:Alfred Petersson
S:Svenska Låtar Blekinge nr 317
N:Svenska Låtar, Band 18 nr 317
R:Anglais
M:2/4
L:1/16
Q:1/4=80
Z:Konverterad till abc-format av  Olle Paulsson 05-01-03
K:Bb
.d(f=ef) .g(fef)|bfd'c' ba.g.f|(=ef).g.f (ef).g.f|(_ec)Ac B2 z2:|
|:F2(Bd) F2(Bd)|f2d2 g2f2|F2(Ac) F2(Ac)|(ec).A.c B4:|

(:musicend:)

(:music:)
